icons/svgs/sparkles-solid.svg

<svg width="24" height="24" viewBox="0 0 24 24" fill="none" xmlns="http://www.w3.org/2000/svg">
<path d="M14.7734 5.35938L17 4.5L17.8203 2.3125C17.8594 2.11719 18.0547 2 18.25 2C18.4062 2 18.6016 2.11719 18.6406 2.3125L19.5 4.5L21.6875 5.35938C21.8828 5.39844 22 5.59375 22 5.75C22 5.94531 21.8828 6.14062 21.6875 6.17969L19.5 7L18.6406 9.22656C18.6016 9.38281 18.4062 9.5 18.25 9.5C18.0547 9.5 17.8594 9.38281 17.8203 9.22656L17 7L14.7734 6.17969C14.6172 6.14062 14.5 5.94531 14.5 5.75C14.5 5.59375 14.6172 5.39844 14.7734 5.35938ZM10.0078 4.89062L12.0391 9.34375L16.4922 11.375C16.7266 11.4922 16.8828 11.7266 16.8828 11.9609C16.8828 12.1953 16.7266 12.4297 16.4922 12.5078L12.0391 14.5781L10.0078 19.0312C9.89062 19.2656 9.65625 19.4219 9.42188 19.4219C9.1875 19.4219 8.95312 19.2656 8.875 19.0312L6.80469 14.5781L2.35156 12.5469C2.11719 12.4297 2 12.1953 2 11.9609C2 11.7266 2.11719 11.4922 2.35156 11.375L6.80469 9.34375L8.875 4.89062C8.95312 4.65625 9.1875 4.5 9.42188 4.5C9.65625 4.5 9.89062 4.65625 10.0078 4.89062ZM17 17L17.8203 14.8125C17.8594 14.6172 18.0547 14.5 18.25 14.5C18.4062 14.5 18.6016 14.6172 18.6406 14.8125L19.5 17L21.6875 17.8594C21.8828 17.8984 22 18.0938 22 18.25C22 18.4453 21.8828 18.6406 21.6875 18.6797L19.5 19.5L18.6406 21.7266C18.6016 21.8828 18.4062 22 18.25 22C18.0547 22 17.8594 21.8828 17.8203 21.7266L17 19.5L14.7734 18.6797C14.6172 18.6406 14.5 18.4453 14.5 18.25C14.5 18.0938 14.6172 17.8984 14.7734 17.8594L17 17Z" fill="black"/>
</svg>

<svg xmlns="http://www.w3.org/2000/svg" width="24" height="24" fill="currentColor" class="icon-sparkles-solid" viewBox="0 0 24 24">
  <mask id="a" width="20" height="20" x="2" y="2" maskUnits="userSpaceOnUse" style="mask-type:alpha">
    <path d="M14.773 5.36 17 4.5l.82-2.187c.04-.196.235-.313.43-.313.156 0 .352.117.39.313L19.5 4.5l2.188.86c.195.038.312.234.312.39 0 .195-.117.39-.312.43L19.5 7l-.86 2.227c-.038.156-.234.273-.39.273-.195 0-.39-.117-.43-.273L17 7l-2.227-.82c-.156-.04-.273-.235-.273-.43 0-.156.117-.352.273-.39m-4.765-.47 2.031 4.454 4.453 2.031c.235.117.39.352.39.586a.59.59 0 0 1-.39.547l-4.453 2.07-2.031 4.453c-.117.235-.352.39-.586.39a.59.59 0 0 1-.547-.39l-2.07-4.453-4.453-2.031A.65.65 0 0 1 2 11.96c0-.234.117-.469.352-.586l4.453-2.031 2.07-4.453a.59.59 0 0 1 .547-.391c.234 0 .469.156.586.39M17 17l.82-2.187c.04-.196.235-.313.43-.313.156 0 .352.117.39.313L19.5 17l2.188.86c.195.038.312.234.312.39 0 .195-.117.39-.312.43l-2.188.82-.86 2.227c-.038.156-.234.273-.39.273-.195 0-.39-.117-.43-.273L17 19.5l-2.227-.82c-.156-.04-.273-.235-.273-.43 0-.156.117-.352.273-.39z"/>
  </mask>
  <g mask="url(#a)">
    <path d="M0 0h24v24H0z"/>
  </g>
</svg>
